X:673
T:Shropshire Lass
C:John Young, 1713
S:Colin Hume's website,  colinhume.com  - chords can also be printed below the stave.
Q:1/2=120
M:4/4
L:1/8
K:D
(3ABc | "D"d2d2 "G"c2B2 | "D"A4 A2BA | "Em"G2F2 "A7"E2FG | "D"AGFE D2 (3ABc |\
"Bm"d2d2 c2B2 | "Em"e4 e2f2 | "A7"gfed cdec | "D"d6 :|
|: de | "D7"f2f2 e2d2 | "G"g3a gagf | "Em"efef gfge | "A7"a4- a2 ag |\
"D"fgef d2ag | "D"fgef dfga | "G"bagf "A7"e3d | "D"d6 :|

